img/svg/mote_avbrutt.svg

<?xml version="1.0" encoding="UTF-8" standalone="no"?>
<svg width="144px" height="145px" viewBox="0 0 144 145" version="1.1" xmlns="http://www.w3.org/2000/svg" xmlns:xlink="http://www.w3.org/1999/xlink">
    <!-- Generator: Sketch 42 (36781) - http://www.bohemiancoding.com/sketch -->
    <title>Group 3</title>
    <desc>Created with Sketch.</desc>
    <defs>
        <polygon id="path-1" points="0 21.3736337 0 0.483186047 84.6005 0.483186047 84.6005 21.3736337 1.0185933e-14 21.3736337"></polygon>
        <polygon id="path-3" points="0.0311666667 56.0348837 84.702957 56.0348837 84.702957 0.0717430233 0.0311666667 0.0717430233 0.0311666667 56.0348837"></polygon>
    </defs>
    <g id="Ferdige-AG" stroke="none" stroke-width="1" fill="none" fill-rule="evenodd">
        <g id="Avbrutt-møte" transform="translate(-440.000000, -418.000000)">
            <g id="Group-3" transform="translate(440.000000, 418.000000)">
                <g id="Group" transform="translate(0.000000, 0.523438)" fill="#E2AFA7">
                    <ellipse id="Oval-Copy" cx="72" cy="72" rx="72" ry="72"></ellipse>
                </g>
                <path d="M29.0312581,54.3323061 L29.0001828,39.1275619 L29.0312581,54.3323061 Z" id="Fill-1" fill="#C32026"></path>
                <g id="Group-4" transform="translate(29.000000, 32.959040)">
                    <mask id="mask-2" fill="white">
                        <use xlink:href="#path-1"></use>
                    </mask>
                    <g id="Clip-3"></g>
                    <path d="M66.8647473,14.6237267 C65.2808226,14.6274012 63.9939409,13.3395174 63.9911989,11.7475756 C63.987543,10.1556337 65.2689409,8.86223837 66.8528656,8.85856395 C68.4367903,8.85580814 69.723672,10.1436919 69.726414,11.7356337 C69.7300699,13.3275756 68.448672,14.6200523 66.8647473,14.6237267 M17.7402312,14.7247733 C16.1563065,14.7284477 14.8694247,13.440564 14.8666828,11.8486221 C14.8630269,10.2566802 16.1444247,8.96328488 17.7283495,8.95961047 C19.3122742,8.95685465 20.5991559,10.2447384 20.6018978,11.8366802 C20.6055538,13.4286221 19.3241559,14.7210988 17.7402312,14.7247733 M81.2032419,0.912633721 C80.5451774,0.634296512 79.8222204,0.48180814 79.0636183,0.482726744 L5.48377957,0.634296512 C2.44937097,0.640726744 -0.00648924731,3.11820349 -9.13978494e-05,6.16888953 L0.030983871,21.3736337 L84.6005,21.1990988 L84.5694247,5.99435465 C84.5648548,3.70702907 83.1774355,1.74764535 81.2032419,0.912633721" id="Fill-2" fill="#CC2026" mask="url(#mask-2)"></path>
                </g>
                <g id="Group-7" transform="translate(29.000000, 54.086947)">
                    <mask id="mask-4" fill="white">
                        <use xlink:href="#path-3"></use>
                    </mask>
                    <g id="Clip-6"></g>
                    <path d="M0.0311666667,0.245359302 L0.066811828,17.7006849 L0.133532258,50.5233477 C0.139016129,53.5731151 2.60493011,56.0414058 5.63933871,56.0349756 L79.2191774,55.8834058 C82.2545,55.8769756 84.7094462,53.3994988 84.7030484,50.3497314 L84.6573495,27.9927314 L84.6006828,0.0717430233 L0.0311666667,0.245359302 Z" id="Fill-5" fill="#FFFFFF" mask="url(#mask-4)"></path>
                </g>
                <path d="M50.1664624,54.288948 L50.2797957,110.089587" id="Stroke-8" stroke="#878686" stroke-width="1.883"></path>
                <path d="M72.102586,54.2437526 L72.2159194,110.044392" id="Stroke-10" stroke="#878686" stroke-width="1.883"></path>
                <path d="M93.8155161,54.1991084 L93.9288495,109.999748" id="Stroke-12" stroke="#878686" stroke-width="1.883"></path>
                <path d="M29.0574892,67.2906945 L113.627005,67.1170782" id="Stroke-14" stroke="#878686" stroke-width="1.883"></path>
                <path d="M29.0856398,81.1207468 L113.655156,80.9471305" id="Stroke-16" stroke="#878686" stroke-width="1.883"></path>
                <path d="M29.1137903,94.9507073 L113.683306,94.777091" id="Stroke-18" stroke="#878686" stroke-width="1.883"></path>
                <g id="Group-2" transform="translate(55.000000, 82.000000)" fill="#C30000">
                    <path d="M7.80456223,3.14292256 L9.14776164,1.31768161 C9.46185234,0.890827222 10.0678201,0.795179279 10.5022778,1.10501756 C10.9367355,1.41485584 11.0328224,2.01214672 10.7187317,2.43950987 L5.73977427,9.20456676 C5.73573865,9.21005078 5.73143293,9.2141523 5.7268718,9.21693246 L4.38367239,11.0421734 C4.06958169,11.4690278 3.46361395,11.5646757 3.02915626,11.2548375 C2.59469857,10.9449992 2.49861161,10.3477083 2.81270231,9.92034515 L7.79165977,3.15528826 C7.79569539,3.14980423 7.80000111,3.14570272 7.80456223,3.14292256 Z" id="Combined-Shape"></path>
                    <path d="M7.65892826,3.16289877 L9.00212767,1.33765781 C9.31621837,0.91080343 9.92218611,0.815155487 10.3566438,1.12499377 C10.7911015,1.43483205 10.8871884,2.03212293 10.5730977,2.45948608 L5.59414029,9.22454296 C5.59010467,9.23002699 5.58579895,9.23412851 5.58123783,9.23690866 L4.23803842,11.0621496 C3.92394772,11.489004 3.31797998,11.5846519 2.88352229,11.2748137 C2.4490646,10.9649754 2.35297764,10.3676845 2.66706834,9.94032136 L7.64602579,3.17526447 C7.65006141,3.16978044 7.65436713,3.16567893 7.65892826,3.16289877 Z" id="Combined-Shape-Copy" transform="translate(6.620083, 6.199904) rotate(-255.000000) translate(-6.620083, -6.199904) "></path>
                </g>
            </g>
        </g>
    </g>
</svg>

<svg width="144" height="145" xmlns="http://www.w3.org/2000/svg" xmlns:xlink="http://www.w3.org/1999/xlink"><defs><path id="a" d="M0 21.374V.484h84.6v20.89H0z"/><path id="c" d="M.031 56.035h84.672V.072H.031v55.963z"/></defs><g fill="none" fill-rule="evenodd"><ellipse cx="72" cy="72" rx="72" ry="72" transform="translate(0 .523)" fill="#E2AFA7"/><path d="M29.031 54.332l-.03-15.204.03 15.204z" fill="#C32026"/><g transform="translate(29 32.959)"><mask id="b" fill="#fff"><use xlink:href="#a"/></mask><path d="M66.865 14.624a2.874 2.874 0 0 1-2.874-2.876 2.876 2.876 0 0 1 2.862-2.89 2.875 2.875 0 0 1 2.873 2.878 2.875 2.875 0 0 1-2.861 2.888m-49.125.1a2.874 2.874 0 0 1-2.873-2.875 2.876 2.876 0 0 1 2.861-2.89 2.875 2.875 0 0 1 2.874 2.878 2.875 2.875 0 0 1-2.862 2.888M81.203.913a5.461 5.461 0 0 0-2.14-.43L5.484.634C2.45.641-.006 3.118 0 6.17L.03 21.374l84.57-.175-.032-15.205A5.525 5.525 0 0 0 81.203.913" fill="#CC2026" mask="url(#b)"/></g><g transform="translate(29 54.087)"><mask id="d" fill="#fff"><use xlink:href="#c"/></mask><path d="M.031.245l.036 17.456.067 32.822c.005 3.05 2.47 5.518 5.505 5.512l73.58-.152c3.035-.006 5.49-2.484 5.484-5.533l-.046-22.357L84.601.072.03.245z" fill="#FFF" mask="url(#d)"/></g><path d="M50.166 54.289l.114 55.8M72.103 54.244l.113 55.8M93.816 54.2l.113 55.8M29.057 67.29l84.57-.173M29.086 81.12l84.57-.173M29.114 94.95l84.57-.173" stroke="#878686" stroke-width="1.883"/><g fill="#C30000"><path d="M62.805 85.143l1.343-1.825a.98.98 0 0 1 1.354-.213c.435.31.53.907.217 1.335l-4.98 6.765a.046.046 0 0 1-.012.012l-1.343 1.825a.98.98 0 0 1-1.355.213.946.946 0 0 1-.216-1.335l4.979-6.765a.046.046 0 0 1 .013-.012z"/><path d="M64.285 89.99l1.415 1.77a.98.98 0 0 1-.145 1.363.946.946 0 0 1-1.345-.137l-5.246-6.56a.046.046 0 0 1-.009-.016l-1.415-1.77a.98.98 0 0 1 .145-1.363.946.946 0 0 1 1.345.136l5.246 6.56.009.016z"/></g></g></svg>
